X:5995
T:Gan Ainm
R:Hornpipe
S:
H:
N:
D:concertina recital Milltown 1992
Z:Adrian Scahill
M:4/4
L:1/8
K:D
FGEG DEFG|(3ABA GB A2de|(3fed fg agf/2e/2d/2c/2|dcAF G2AG|\
FGEG DEFG|(3ABA GB A2de|(3fed fg ag (3edc|1 (3dcd de d2AG:|2 (3dcd de d2de||\
(3fed fg (3afe de|fefg aeab|ag {f}(3edc dg f/2e/2d/2c/2|1 dcAF G2de|(3fed fg (3afe de|\
fefg aefg|age/2f/2d cede|Adde d3e:|2 dcAF G2AG|\
FGEG DEFG|(3ABA GB A2de|(3fed fg ag (3edc|(3dcd de d4||


